assets/icons/export.svg

<svg width="24" height="25" viewBox="0 0 24 25" fill="none" xmlns="http://www.w3.org/2000/svg">
<path d="M18.8681 4.48935C19.2256 4.19783 19.7531 4.21897 20.0863 4.55215C20.4194 4.88534 20.4406 5.41288 20.1491 5.7703L20.0863 5.83903L13.4528 12.4725C13.0974 12.8278 12.5213 12.8278 12.1659 12.4725C11.8105 12.1171 11.8106 11.541 12.1659 11.1856L18.7994 4.55215L18.8681 4.48935Z" fill="#111111"/>
<path d="M19.1799 8.43148V5.45839H16.2068C15.7042 5.45839 15.2968 5.05094 15.2968 4.54833C15.2968 4.04572 15.7042 3.63828 16.2068 3.63828H20.09L20.1824 3.64302C20.6415 3.68945 21 4.07701 21 4.54833V8.43148C20.9999 8.9339 20.5924 9.34141 20.09 9.34154C19.5874 9.34154 19.18 8.93398 19.1799 8.43148Z" fill="#111111"/>
<path d="M3 15.065V10.2114C3 8.09929 3.41652 6.38335 4.58075 5.21912C5.74498 4.05489 7.46092 3.63837 9.57303 3.63837H11.1905L11.2841 3.64311C11.7428 3.68997 12.1006 4.07742 12.1006 4.54842C12.1006 5.01943 11.7428 5.40688 11.2841 5.45374L11.1905 5.45848H9.57303C7.64044 5.45848 6.52351 5.85011 5.86763 6.506C5.21174 7.16188 4.82011 8.27881 4.82011 10.2114V15.065C4.82017 16.9972 5.21191 18.1134 5.86763 18.7693C6.52351 19.4251 7.64044 19.8168 9.57303 19.8168H14.4267C16.359 19.8167 17.475 19.4251 18.1309 18.7693C18.7867 18.1134 19.1784 16.9974 19.1784 15.065V13.4464C19.1786 12.9441 19.5862 12.5365 20.0885 12.5363C20.5909 12.5363 20.9983 12.9439 20.9985 13.4464V15.065C20.9985 17.177 20.5819 18.892 19.4178 20.0561C18.2536 21.2203 16.5386 21.6368 14.4267 21.6369H9.57303C7.46092 21.6369 5.74498 21.2204 4.58075 20.0561C3.41675 18.892 3.00005 17.1768 3 15.065Z" fill="#111111"/>
</svg>

<svg xmlns="http://www.w3.org/2000/svg" width="24" height="25" fill="none" viewBox="0 0 24 25"><path fill="#111" d="M18.868 4.49a.91.91 0 0 1 1.281 1.28l-.063.069-6.633 6.634a.91.91 0 0 1-1.287-1.287l6.633-6.634z"/><path fill="#111" d="M19.18 8.431V5.458h-2.973a.91.91 0 0 1 0-1.82h3.883l.092.005a.91.91 0 0 1 .818.905v3.883a.91.91 0 0 1-1.82 0M3 15.065v-4.854C3 8.1 3.417 6.383 4.58 5.22c1.165-1.164 2.88-1.58 4.993-1.58h1.617l.094.004a.91.91 0 0 1 0 1.81l-.094.005H9.574c-1.933 0-3.05.392-3.705 1.048S4.82 8.279 4.82 10.211v4.854c0 1.932.392 3.048 1.048 3.704s1.772 1.048 3.705 1.048h4.854c1.932 0 3.048-.392 3.704-1.048s1.047-1.772 1.047-3.704v-1.619a.91.91 0 0 1 1.82 0v1.619c0 2.112-.416 3.827-1.58 4.991s-2.88 1.58-4.991 1.58H9.573c-2.112 0-3.828-.416-4.992-1.58S3 17.176 3 15.065"/></svg>
